assets/icons/custom/custom18.svg

<?xml version="1.0"?><svg xmlns="http://www.w3.org/2000/svg" width="100" height="100" viewBox="0 0 100 100"><g fill="#fff"><path d="m60 36h10.6c0.8 0 1.4-0.6 1.4-1.4 0-0.4-0.1-0.7-0.4-1l-13.2-13.2c-0.3-0.3-0.6-0.4-1-0.4-0.8 0-1.4 0.6-1.4 1.4v10.6c0 2.2 1.8 4 4 4z m23.4 13.6l-1.2-1.2c-0.8-0.8-2-0.8-2.8 0l-15.4 15.5c-0.1 0.1 0 0.2 0 0.4v3.3c0 0.3 0 0.5 0.3 0.5h3.3c0.1 0 0.3-0.1 0.4-0.1l15.4-15.4c0.8-1 0.8-2.2 0-3z m-12.5 24.4h-9.1c-2.1 0-3.8-1.7-3.8-3.8v-7c0-1.1 0.3-2.1 1.1-2.8l12.3-12.4c0.4-0.4 0.6-0.9 0.6-1.4v-2.6c0-1.1-0.9-2-2-2h-14c-3.3 0-6-2.7-6-6v-14c0-1.1-0.9-2-2-2h-20c-3.3 0-6 2.7-6 6v48c0 3.3 2.7 6 6 6h38c2.9 0 5.4-2.1 5.9-4.8 0.1-0.6-0.4-1.2-1-1.2z m-40.9-36c0-1.1 0.9-2 2-2h8c1.1 0 2 0.9 2 2v2c0 1.1-0.9 2-2 2h-8c-1.1 0-2-0.9-2-2v-2z m20 26c0 1.1-0.9 2-2 2h-16c-1.1 0-2-0.9-2-2v-2c0-1.1 0.9-2 2-2h16c1.1 0 2 0.9 2 2v2z m4-12c0 1.1-0.9 2-2 2h-20c-1.1 0-2-0.9-2-2v-2c0-1.1 0.9-2 2-2h20c1.1 0 2 0.9 2 2v2z"></path></g></svg>

<svg xmlns="http://www.w3.org/2000/svg" x="0px" y="0px"
	 width="100px" height="100px" viewBox="0 0 100 100" enable-background="new 0 0 100 100" xml:space="preserve">
<g>
	<path fill="#FFFFFF" d="M60,36h10.6c0.801,0,1.4-0.6,1.4-1.4l0,0c0-0.4-0.1-0.7-0.4-1L58.4,20.4C58.1,20.1,57.8,20,57.4,20l0,0
		C56.6,20,56,20.6,56,21.4V32C56,34.2,57.8,36,60,36z"/>
	<path fill="#FFFFFF" d="M83.4,49.6l-1.2-1.2c-0.8-0.8-2-0.8-2.8,0L64,63.9C63.9,64,64,64.1,64,64.3v3.3c0,0.301,0,0.5,0.3,0.5h3.3
		C67.7,68.1,67.9,68,68,68l15.4-15.4C84.2,51.6,84.2,50.4,83.4,49.6z"/>
	<path fill="#FFFFFF" d="M70.9,74H68.6H64h-2.2c-2.1,0-3.8-1.7-3.8-3.8v-7c0-1.101,0.3-2.101,1.1-2.8L71.4,48
		c0.399-0.4,0.6-0.9,0.6-1.4V44c0-1.1-0.9-2-2-2H56c-3.3,0-6-2.7-6-6V22c0-1.1-0.9-2-2-2H28c-3.3,0-6,2.7-6,6v48c0,3.3,2.7,6,6,6h38
		c2.9,0,5.4-2.1,5.9-4.8C72,74.6,71.5,74,70.9,74z M30,38c0-1.1,0.9-2,2-2h8c1.1,0,2,0.9,2,2v2c0,1.1-0.9,2-2,2h-8c-1.1,0-2-0.9-2-2
		V38z M50,64c0,1.1-0.9,2-2,2H32c-1.1,0-2-0.9-2-2v-2c0-1.1,0.9-2,2-2h16c1.1,0,2,0.9,2,2V64z M54,52c0,1.1-0.9,2-2,2H32
		c-1.1,0-2-0.9-2-2v-2c0-1.1,0.9-2,2-2h20c1.1,0,2,0.9,2,2V52z"/>
</g>
</svg>
